X: 063
M: 6/8
L: 1/8
K: Em
(E/F/G)(E B)GE | (D>EF/G/) AFD | (E/F/G)(E B)GE | eBG BGE |\
dfe d^cB | AFA def | geg fdf | eGE E2 :|
|: g |\
(e/f/g)e bge | dfg afd | (e/f/g)(e b)ge | Beg bge |\
dfe d^cB | AFA def | geg fdf | eGE E2 :|


